src/assets/filled/DocumentNormal.svg

<svg width="24" height="24" viewBox="0 0 24 24"  xmlns="http://www.w3.org/2000/svg">
<path d="M20.71 8.12047V17.5305C20.71 19.9905 18.7 22.0005 16.24 22.0005H7.76004C5.30004 22.0005 3.29004 19.9905 3.29004 17.5305V8.12047C3.29004 6.41047 4.25004 4.92047 5.66004 4.17047C6.15004 3.91047 6.76004 4.26047 6.76004 4.82047C6.76004 6.41047 8.06004 7.71047 9.65004 7.71047H14.35C15.94 7.71047 17.24 6.41047 17.24 4.82047C17.24 4.26047 17.84 3.91047 18.34 4.17047C19.75 4.92047 20.71 6.41047 20.71 8.12047Z" />
<path d="M14.35 2H9.65001C8.61001 2 7.76001 2.84 7.76001 3.88V4.82C7.76001 5.86 8.60001 6.7 9.64001 6.7H14.35C15.39 6.7 16.23 5.86 16.23 4.82V3.88C16.24 2.84 15.39 2 14.35 2Z" />
</svg>

<?xml version="1.0" encoding="UTF-8"?>
<svg width="24" height="24" viewBox="0 0 24 24" xmlns="http://www.w3.org/2000/svg">
 <path d="m20.71 8.1205v9.41c0 2.46-2.01 4.47-4.47 4.47h-8.48c-2.46 0-4.47-2.01-4.47-4.47v-9.41c0-1.71 0.96-3.2 2.37-3.95 0.49-0.26 1.1 0.09 1.1 0.65 0 1.59 1.3 2.89 2.89 2.89h4.7c1.59 0 2.89-1.3 2.89-2.89 0-0.56 0.6-0.91 1.1-0.65 1.41 0.75 2.37 2.24 2.37 3.95z"/>
 <path d="m14.35 2h-4.7c-1.04 0-1.89 0.84-1.89 1.88v0.94c0 1.04 0.84 1.88 1.88 1.88h4.71c1.04 0 1.88-0.84 1.88-1.88v-0.94c0.01-1.04-0.84-1.88-1.88-1.88z"/>
</svg>
